icon-themes/sifr_svg/cmd/sc_closedoc.svg

<svg viewBox="0 0 16 16" xmlns="http://www.w3.org/2000/svg"><path d="m8 1c-3.8659932 0-7 3.1340068-7 7 0 3.865993 3.1340068 7 7 7 3.865993 0 7-3.134007 7-7 0-3.8659932-3.134007-7-7-7zm-3 4h1.4140625l1.5859375 1.5859375 1.5859375-1.5859375h1.4140625v1.4140625l-1.5859375 1.5859375 1.5859375 1.5859375v1.4140625h-1.4140625l-1.5859375-1.5859375-1.5859375 1.5859375h-1.4140625v-1.4140625l1.5859375-1.5859375-1.5859375-1.5859375z" fill="#555753"/></svg>

<svg xmlns="http://www.w3.org/2000/svg" viewBox="0 0 16 16">
  <path
     style="fill:#555753"
     d="M 8 1 C 4.1340068 1 1 4.1340068 1 8 C 1 11.865993 4.1340068 15 8 15 C 11.865993 15 15 11.865993 15 8 C 15 4.1340068 11.865993 1 8 1 z M 5 5 L 6.4140625 5 L 8 6.5859375 L 9.5859375 5 L 11 5 L 11 6.4140625 L 9.4140625 8 L 11 9.5859375 L 11 11 L 9.5859375 11 L 8 9.4140625 L 6.4140625 11 L 5 11 L 5 9.5859375 L 6.5859375 8 L 5 6.4140625 L 5 5 z "
     />
</svg>
